source/img/icons/program-4.svg

<svg viewBox="0 0 61 60" fill="none" xmlns="http://www.w3.org/2000/svg">
<rect x="0.5" fill="#68B738"/>
<ellipse cx="35.7042" cy="24.3299" rx="1.0873" ry="1.08512" fill="white"/>
<ellipse cx="24.8311" cy="24.3299" rx="1.08731" ry="1.08512" fill="white"/>
<ellipse cx="24.8311" cy="37.3512" rx="1.08731" ry="1.08512" fill="white"/>
<ellipse cx="30.2677" cy="39.5215" rx="1.0873" ry="1.08512" fill="white"/>
<ellipse cx="21.5692" cy="30.7748" rx="1.08731" ry="1.08512" fill="white"/>
<ellipse cx="38.9661" cy="30.7748" rx="1.0873" ry="1.08512" fill="white"/>
<ellipse cx="35.7042" cy="37.3512" rx="1.0873" ry="1.08512" fill="white"/>
<mask id="path-9-inside-1_95_39" fill="white">
<path fill-rule="evenodd" clip-rule="evenodd" d="M35.4215 42.0581C35.8298 41.8622 36.3226 41.9298 36.6385 42.2542L38.4644 44.1292C38.7319 44.4039 39.1734 44.4039 39.441 44.1292C39.6987 43.8645 39.6987 43.4427 39.441 43.1781L38.0843 41.7849C37.6584 41.3475 37.7228 40.6356 38.182 40.2333C40.8238 37.9195 42.5 34.4688 42.5 30.6145C42.5 23.6477 37.0235 18 30.2678 18C23.5122 18 18.0356 23.6477 18.0356 30.6145C18.0356 34.4288 19.6773 37.8477 22.2717 40.1608C22.7244 40.5644 22.7849 41.2708 22.3617 41.7054L20.9276 43.1781C20.6698 43.4427 20.6698 43.8645 20.9276 44.1291C21.1951 44.4039 21.6366 44.4039 21.9042 44.1292L23.7838 42.199C24.1025 41.8718 24.6004 41.8061 25.0102 42.0076C26.603 42.7907 28.3858 43.229 30.2678 43.229C32.109 43.229 33.8553 42.8095 35.4215 42.0581ZM30.2678 41.8274C36.2728 41.8274 41.1409 36.8072 41.1409 30.6145C41.1409 24.4218 36.2728 19.4016 30.2678 19.4016C24.2628 19.4016 19.3948 24.4218 19.3948 30.6145C19.3948 36.8072 24.2628 41.8274 30.2678 41.8274ZM29.5083 30.298V26.5001V22.9409C29.5083 22.5094 29.8581 22.1596 30.2895 22.1596C30.721 22.1596 31.0708 22.5094 31.0708 22.9409V26.5001V30.298V30.8406V31.1226C31.0708 31.5661 30.7113 31.9257 30.2677 31.9257C29.8483 31.9257 29.5083 31.5857 29.5083 31.1663V30.8406V30.298Z"/>
</mask>
<path fill-rule="evenodd" clip-rule="evenodd" d="M35.4215 42.0581C35.8298 41.8622 36.3226 41.9298 36.6385 42.2542L38.4644 44.1292C38.7319 44.4039 39.1734 44.4039 39.441 44.1292C39.6987 43.8645 39.6987 43.4427 39.441 43.1781L38.0843 41.7849C37.6584 41.3475 37.7228 40.6356 38.182 40.2333C40.8238 37.9195 42.5 34.4688 42.5 30.6145C42.5 23.6477 37.0235 18 30.2678 18C23.5122 18 18.0356 23.6477 18.0356 30.6145C18.0356 34.4288 19.6773 37.8477 22.2717 40.1608C22.7244 40.5644 22.7849 41.2708 22.3617 41.7054L20.9276 43.1781C20.6698 43.4427 20.6698 43.8645 20.9276 44.1291C21.1951 44.4039 21.6366 44.4039 21.9042 44.1292L23.7838 42.199C24.1025 41.8718 24.6004 41.8061 25.0102 42.0076C26.603 42.7907 28.3858 43.229 30.2678 43.229C32.109 43.229 33.8553 42.8095 35.4215 42.0581ZM30.2678 41.8274C36.2728 41.8274 41.1409 36.8072 41.1409 30.6145C41.1409 24.4218 36.2728 19.4016 30.2678 19.4016C24.2628 19.4016 19.3948 24.4218 19.3948 30.6145C19.3948 36.8072 24.2628 41.8274 30.2678 41.8274ZM29.5083 30.298V26.5001V22.9409C29.5083 22.5094 29.8581 22.1596 30.2895 22.1596C30.721 22.1596 31.0708 22.5094 31.0708 22.9409V26.5001V30.298V30.8406V31.1226C31.0708 31.5661 30.7113 31.9257 30.2677 31.9257C29.8483 31.9257 29.5083 31.5857 29.5083 31.1663V30.8406V30.298Z" fill="white"/>
<path d="M23.7838 42.199L26.6495 44.9896L23.7838 42.199ZM25.0102 42.0076L26.775 38.418L25.0102 42.0076ZM21.9042 44.1292L19.0385 41.3385L21.9042 44.1292ZM20.9276 43.1781L23.7932 45.9687L20.9276 43.1781ZM38.0843 41.7849L35.2186 44.5756L38.0843 41.7849ZM38.182 40.2333L35.5465 37.2243L38.182 40.2333ZM22.2717 40.1608L19.6097 43.1464L22.2717 40.1608ZM22.3617 41.7054L19.4961 38.9147L22.3617 41.7054ZM39.441 43.1781L42.3067 40.3874L39.441 43.1781ZM38.4644 44.1292L41.3301 41.3385L38.4644 44.1292ZM36.6385 42.2542L33.7728 45.0449L36.6385 42.2542ZM35.4215 42.0581L33.6913 38.4516L35.4215 42.0581ZM33.7728 45.0449L35.5987 46.9198L41.3301 41.3385L39.5042 39.4636L33.7728 45.0449ZM42.3067 40.3874L40.95 38.9942L35.2186 44.5756L36.5753 45.9688L42.3067 40.3874ZM40.8175 43.2423C44.3075 40.1855 46.5 35.6466 46.5 30.6145H38.5C38.5 33.2911 37.3401 35.6534 35.5465 37.2243L40.8175 43.2423ZM46.5 30.6145C46.5 21.5555 39.3478 14 30.2678 14V22C34.6992 22 38.5 25.7399 38.5 30.6145H46.5ZM30.2678 14C21.1879 14 14.0356 21.5555 14.0356 30.6145H22.0356C22.0356 25.7399 25.8365 22 30.2678 22V14ZM14.0356 30.6145C14.0356 35.5943 16.183 40.0912 19.6097 43.1464L24.9336 37.1752C23.1716 35.6042 22.0356 33.2633 22.0356 30.6145H14.0356ZM19.4961 38.9147L18.0619 40.3874L23.7932 45.9687L25.2274 44.496L19.4961 38.9147ZM24.7699 46.9198L26.6495 44.9896L20.9181 39.4083L19.0385 41.3385L24.7699 46.9198ZM23.2454 45.5972C25.3722 46.6429 27.7573 47.229 30.2678 47.229V39.229C29.0143 39.229 27.8337 38.9385 26.775 38.418L23.2454 45.5972ZM30.2678 47.229C32.7236 47.229 35.0598 46.6681 37.1517 45.6645L33.6913 38.4516C32.6508 38.9508 31.4944 39.229 30.2678 39.229V47.229ZM30.2678 45.8274C38.5971 45.8274 45.1409 38.8994 45.1409 30.6145H37.1409C37.1409 34.715 33.9485 37.8274 30.2678 37.8274V45.8274ZM45.1409 30.6145C45.1409 22.3296 38.5971 15.4016 30.2678 15.4016V23.4016C33.9485 23.4016 37.1409 26.514 37.1409 30.6145H45.1409ZM30.2678 15.4016C21.9385 15.4016 15.3948 22.3296 15.3948 30.6145H23.3948C23.3948 26.514 26.5871 23.4016 30.2678 23.4016V15.4016ZM15.3948 30.6145C15.3948 38.8994 21.9385 45.8274 30.2678 45.8274V37.8274C26.5871 37.8274 23.3948 34.715 23.3948 30.6145H15.3948ZM27.0708 30.298V30.8406H35.0708V30.298H27.0708ZM27.0708 30.8406V31.1226H35.0708V30.8406H27.0708ZM33.5083 31.1663V30.8406H25.5083V31.1663H33.5083ZM33.5083 30.8406V30.298H25.5083V30.8406H33.5083ZM33.5083 30.298V26.5001H25.5083V30.298H33.5083ZM33.5083 26.5001V22.9409H25.5083V26.5001H33.5083ZM27.0708 22.9409V26.5001H35.0708V22.9409H27.0708ZM27.0708 26.5001V30.298H35.0708V26.5001H27.0708ZM30.2895 18.1596C27.6489 18.1596 25.5083 20.3003 25.5083 22.9409H33.5083C33.5083 24.7186 32.0672 26.1596 30.2895 26.1596V18.1596ZM27.0708 31.1226C27.0708 29.357 28.5021 27.9257 30.2677 27.9257V35.9257C32.9204 35.9257 35.0708 33.7753 35.0708 31.1226H27.0708ZM26.6495 44.9896C25.6569 46.009 24.2521 46.0922 23.2454 45.5972L26.775 38.418C24.9487 37.52 22.548 37.7346 20.9181 39.4083L26.6495 44.9896ZM18.0619 46.9198C19.8997 48.807 22.9321 48.807 24.7699 46.9198L19.0385 41.3385C20.3412 40.0008 22.4906 40.0008 23.7933 41.3385L18.0619 46.9198ZM18.0619 40.3874C16.2917 42.2051 16.2917 45.1021 18.0619 46.9198L23.7933 41.3385C25.048 42.6269 25.0479 44.6803 23.7932 45.9687L18.0619 40.3874ZM40.95 38.9942C42.2927 40.3731 41.894 42.2994 40.8175 43.2423L35.5465 37.2243C33.5515 38.9717 33.024 42.3219 35.2186 44.5756L40.95 38.9942ZM30.2895 26.1596C28.5119 26.1596 27.0708 24.7186 27.0708 22.9409H35.0708C35.0708 20.3003 32.9302 18.1596 30.2895 18.1596V26.1596ZM19.6097 43.1464C18.5463 42.1983 18.1626 40.2839 19.4961 38.9147L25.2274 44.496C27.4071 42.2577 26.9025 38.9306 24.9336 37.1752L19.6097 43.1464ZM42.3067 46.9198C44.0768 45.1021 44.0768 42.2051 42.3067 40.3874L36.5753 45.9688C35.3206 44.6803 35.3206 42.6269 36.5753 41.3385L42.3067 46.9198ZM35.5987 46.9198C37.4365 48.807 40.4689 48.807 42.3067 46.9198L36.5753 41.3385C37.878 40.0008 40.0274 40.0008 41.3301 41.3385L35.5987 46.9198ZM30.2677 27.9257C32.0574 27.9257 33.5083 29.3765 33.5083 31.1663H25.5083C25.5083 33.7948 27.6391 35.9257 30.2677 35.9257V27.9257ZM39.5042 39.4636C37.8881 37.804 35.5117 37.5783 33.6913 38.4516L37.1517 45.6645C36.148 46.1461 34.757 46.0555 33.7728 45.0449L39.5042 39.4636Z" fill="none" mask="url(#path-9-inside-1_95_39)"/>
<rect x="29.5" y="19" width="4" height="1.5" transform="rotate(-90 29.5 19)" fill="white"/>
<rect x="22.5" y="15" width="15.5" height="1.5" rx="0.75" fill="white"/>
</svg>

<svg width="61" height="60" fill="none" xmlns="http://www.w3.org/2000/svg"><path fill="#68B738" d="M.5 0h60v60H.5z"/><ellipse cx="35.704" cy="24.33" rx="1.087" ry="1.085" fill="#fff"/><ellipse cx="24.831" cy="24.33" rx="1.087" ry="1.085" fill="#fff"/><ellipse cx="24.831" cy="37.351" rx="1.087" ry="1.085" fill="#fff"/><ellipse cx="30.268" cy="39.522" rx="1.087" ry="1.085" fill="#fff"/><ellipse cx="21.569" cy="30.775" rx="1.087" ry="1.085" fill="#fff"/><ellipse cx="38.966" cy="30.775" rx="1.087" ry="1.085" fill="#fff"/><ellipse cx="35.704" cy="37.351" rx="1.087" ry="1.085" fill="#fff"/><mask id="a" fill="#fff"><path fill-rule="evenodd" clip-rule="evenodd" d="M35.422 42.058a1.058 1.058 0 0 1 1.217.196l1.825 1.875a.682.682 0 0 0 .977-.95l-1.357-1.394c-.426-.438-.361-1.15.098-1.552 2.642-2.313 4.318-5.764 4.318-9.618C42.5 23.648 37.023 18 30.268 18c-6.756 0-12.232 5.648-12.232 12.614 0 3.815 1.641 7.234 4.236 9.547.452.403.513 1.11.09 1.544l-1.434 1.473a.681.681 0 1 0 .976.951l1.88-1.93a1.058 1.058 0 0 1 1.226-.191 11.878 11.878 0 0 0 5.258 1.221c1.841 0 3.587-.42 5.154-1.17Zm-5.154-.23c6.005 0 10.873-5.02 10.873-11.214 0-6.192-4.868-11.212-10.873-11.212-6.005 0-10.873 5.02-10.873 11.212 0 6.193 4.868 11.213 10.873 11.213Zm-.76-11.53V22.94a.781.781 0 1 1 1.563 0v8.183c0 .443-.36.803-.803.803a.76.76 0 0 1-.76-.76V30.298Z"/></mask><path fill-rule="evenodd" clip-rule="evenodd" d="M35.422 42.058a1.058 1.058 0 0 1 1.217.196l1.825 1.875a.682.682 0 0 0 .977-.95l-1.357-1.394c-.426-.438-.361-1.15.098-1.552 2.642-2.313 4.318-5.764 4.318-9.618C42.5 23.648 37.023 18 30.268 18c-6.756 0-12.232 5.648-12.232 12.614 0 3.815 1.641 7.234 4.236 9.547.452.403.513 1.11.09 1.544l-1.434 1.473a.681.681 0 1 0 .976.951l1.88-1.93a1.058 1.058 0 0 1 1.226-.191 11.878 11.878 0 0 0 5.258 1.221c1.841 0 3.587-.42 5.154-1.17Zm-5.154-.23c6.005 0 10.873-5.02 10.873-11.214 0-6.192-4.868-11.212-10.873-11.212-6.005 0-10.873 5.02-10.873 11.212 0 6.193 4.868 11.213 10.873 11.213Zm-.76-11.53V22.94a.781.781 0 1 1 1.563 0v8.183c0 .443-.36.803-.803.803a.76.76 0 0 1-.76-.76V30.298Z" fill="#fff"/><path d="m23.784 42.199 2.866 2.79-2.866-2.79Zm1.226-.191 1.765-3.59-1.765 3.59Zm-3.106 2.121-2.866-2.79 2.866 2.79Zm-.976-.95 2.865 2.79-2.865-2.79Zm17.156-1.394-2.865 2.79 2.865-2.79Zm.098-1.552-2.636-3.009 2.636 3.01Zm-15.91-.072-2.662 2.985 2.662-2.985Zm.09 1.544-2.866-2.79 2.866 2.79Zm17.079 1.473 2.866-2.79-2.866 2.79Zm-.977.951 2.866-2.79-2.866 2.79Zm-1.825-1.875-2.866 2.79 2.865-2.79Zm-1.218-.196-1.73-3.606 1.73 3.606Zm-1.648 2.987 1.826 1.875 5.731-5.581-1.826-1.875-5.731 5.58Zm8.534-4.658-1.357-1.393-5.731 5.582 1.356 1.393 5.732-5.582Zm-1.49 2.855c3.49-3.056 5.683-7.595 5.683-12.627h-8c0 2.676-1.16 5.038-2.953 6.61l5.27 6.017ZM46.5 30.615C46.5 21.554 39.348 14 30.268 14v8c4.431 0 8.232 3.74 8.232 8.614h8ZM30.268 14c-9.08 0-16.232 7.555-16.232 16.614h8c0-4.874 3.8-8.614 8.232-8.614v-8ZM14.036 30.614c0 4.98 2.147 9.477 5.574 12.532l5.324-5.97c-1.762-1.572-2.898-3.913-2.898-6.562h-8Zm5.46 8.3-1.434 1.473 5.731 5.582 1.434-1.473-5.73-5.581Zm5.274 8.006 1.88-1.93-5.732-5.582-1.88 1.93 5.732 5.582Zm-1.525-1.323a15.878 15.878 0 0 0 7.023 1.632v-8a7.879 7.879 0 0 1-3.493-.811l-3.53 7.18Zm7.023 1.632c2.456 0 4.792-.56 6.884-1.565l-3.46-7.212c-1.041.499-2.198.777-3.424.777v8Zm0-1.402c8.33 0 14.873-6.928 14.873-15.212h-8c0 4.1-3.192 7.212-6.873 7.212v8ZM45.14 30.615c0-8.285-6.544-15.213-14.873-15.213v8c3.68 0 6.873 3.112 6.873 7.212h8ZM30.268 15.402c-8.33 0-14.873 6.928-14.873 15.213h8c0-4.101 3.192-7.213 6.873-7.213v-8ZM15.395 30.615c0 8.284 6.544 15.212 14.873 15.212v-8c-3.68 0-6.873-3.112-6.873-7.212h-8Zm11.676-.317v.543h8v-.543h-8Zm0 .543v.282h8v-.282h-8Zm6.437.325v-.325h-8v.325h8Zm0-.325v-.543h-8v.543h8Zm0-.543V26.5h-8v3.798h8Zm0-3.798v-3.56h-8v3.56h8Zm-6.437-3.56v3.56h8v-3.56h-8Zm0 3.56v3.798h8V26.5h-8Zm3.218-8.34a4.781 4.781 0 0 0-4.78 4.78h8a3.219 3.219 0 0 1-3.22 3.22v-8Zm-3.218 12.963a3.197 3.197 0 0 1 3.197-3.197v8a4.803 4.803 0 0 0 4.803-4.803h-8Zm-.422 13.867a2.943 2.943 0 0 1-3.404.607l3.53-7.179c-1.826-.898-4.227-.683-5.857.99l5.732 5.582Zm-8.587 1.93a4.682 4.682 0 0 0 6.708 0l-5.732-5.581a3.318 3.318 0 0 1 4.755 0l-5.731 5.58Zm0-6.533a4.681 4.681 0 0 0 0 6.533l5.731-5.581a3.318 3.318 0 0 1 0 4.63l-5.731-5.582Zm22.888-1.393c1.343 1.38.944 3.305-.133 4.248l-5.27-6.018c-1.995 1.748-2.523 5.098-.328 7.352l5.731-5.582ZM30.29 26.16a3.219 3.219 0 0 1-3.22-3.22h8c0-2.64-2.14-4.78-4.78-4.78v8ZM19.61 43.146c-1.064-.948-1.447-2.862-.114-4.231l5.731 5.581c2.18-2.238 1.675-5.565-.293-7.32l-5.324 5.97Zm22.697 3.774a4.682 4.682 0 0 0 0-6.533l-5.732 5.582a3.318 3.318 0 0 1 0-4.63l5.732 5.58Zm-6.708 0a4.682 4.682 0 0 0 6.708 0l-5.732-5.581a3.318 3.318 0 0 1 4.755 0l-5.731 5.58Zm-5.331-18.994a3.24 3.24 0 0 1 3.24 3.24h-8a4.76 4.76 0 0 0 4.76 4.76v-8Zm9.236 11.538c-1.616-1.66-3.992-1.886-5.813-1.012l3.46 7.212a2.943 2.943 0 0 1-3.378-.62l5.731-5.58Z" fill="none" mask="url(#a)"/><path fill="none" d="M29.5 19v-4H31v4z"/><rect x="22.5" y="15" width="15.5" height="1.5" rx=".75" fill="none"/></svg>
